img/ico/email-ico.svg

<svg width="24" height="24" viewBox="0 0 24 24" fill="none" xmlns="http://www.w3.org/2000/svg">
<g clip-path="url(#clip0_6002_5081)">
<path d="M12 3C7.03125 3 3 7.03125 3 12C3 16.9688 7.03125 21 12 21C12.8297 21 13.5 21.6703 13.5 22.5C13.5 23.3297 12.8297 24 12 24C5.37188 24 0 18.6281 0 12C0 5.37188 5.37188 0 12 0C18.6281 0 24 5.37188 24 12V13.5C24 15.9844 21.9844 18 19.5 18C18.1266 18 16.8937 17.3813 16.0687 16.4109C15 17.3953 13.5703 18 12 18C8.68594 18 6 15.3141 6 12C6 8.68594 8.68594 6 12 6C13.3078 6 14.5172 6.41719 15.5016 7.12969C15.7688 6.89531 16.1156 6.75 16.5 6.75C17.3297 6.75 18 7.42031 18 8.25V12V13.5C18 14.3297 18.6703 15 19.5 15C20.3297 15 21 14.3297 21 13.5V12C21 7.03125 16.9688 3 12 3ZM15 12C15 11.2044 14.6839 10.4413 14.1213 9.87868C13.5587 9.31607 12.7956 9 12 9C11.2044 9 10.4413 9.31607 9.87868 9.87868C9.31607 10.4413 9 11.2044 9 12C9 12.7956 9.31607 13.5587 9.87868 14.1213C10.4413 14.6839 11.2044 15 12 15C12.7956 15 13.5587 14.6839 14.1213 14.1213C14.6839 13.5587 15 12.7956 15 12Z" fill="#DC3545"/>
</g>
<defs>
<clipPath id="clip0_6002_5081">
<rect width="24" height="24" fill="white"/>
</clipPath>
</defs>
</svg>

<svg width="24" height="24" viewBox="0 0 24 24" fill="currentColor" xmlns="http://www.w3.org/2000/svg" class="svg-icon">
    <path
        d="M12 3c-4.969 0-9 4.031-9 9s4.031 9 9 9c.83 0 1.5.67 1.5 1.5S12.83 24 12 24C5.372 24 0 18.628 0 12S5.372 0 12 0s12 5.372 12 12v1.5a4.501 4.501 0 0 1-7.931 2.91A6 6 0 1 1 12 6c1.308 0 2.517.417 3.502 1.13A1.498 1.498 0 0 1 18 8.25v5.25c0 .83.67 1.5 1.5 1.5s1.5-.67 1.5-1.5V12c0-4.969-4.031-9-9-9m3 9a3 3 0 1 0-6 0 3 3 0 0 0 6 0" />
</svg>
